; generated by Slic3r 0.9.7 on 2012-11-29 at 11:28:31

; layer_height = 0.25
; perimeters = 3
; top_solid_layers = 3
; bottom_solid_layers = 3
; fill_density = 0.2
; perimeter_speed = 30
; infill_speed = 60
; travel_speed = 200
; scale = 1
; nozzle_diameter = 0.35
; filament_diameter = 2.85
; extrusion_multiplier = 1
; perimeters extrusion width = 0.39mm
; infill extrusion width = 0.39mm
; first layer extrusion width = 0.39mm

M190 S60 ; wait for bed temperature to be reached
M104 S175 ; set temperature
G28 ; home all axes
M109 S175 ; wait for temperature to be reached
G90 ; use absolute coordinates
G21 ; set units to millimeters
G92 E0
M82 ; use absolute distances for extrusion
G1 F1800.000 E-1.00000
G92 E0
G1 Z0.250 F12000.000
G1 X82.310 Y82.140
G1 F1800.000 E1.00000
G1 X82.950 Y81.540 F900.000 E1.01323
G1 X84.010 Y80.660 E1.03401
G1 X84.770 Y80.100 E1.04825
G1 X85.930 Y79.370 E1.06892
G1 X86.670 Y78.970 E1.08160
G1 X87.910 Y78.380 E1.10231
G1 X88.780 Y78.030 E1.11646
G1 X90.080 Y77.610 E1.13706
G1 X90.930 Y77.390 E1.15030
G1 X92.280 Y77.130 E1.17104
G1 X93.210 Y77.020 E1.18516
G1 X94.580 Y76.940 E1.20586
G1 X95.420 Y76.940 E1.21852
G1 X96.780 Y77.020 E1.23907
G1 X97.710 Y77.130 E1.25319
G1 X99.060 Y77.390 E1.27393
G1 X99.910 Y77.610 E1.28717
G1 X101.210 Y78.030 E1.30777
G1 X102.060 Y78.370 E1.32158
G1 X103.310 Y78.960 E1.34243
G1 X104.110 Y79.400 E1.35620
G1 X105.220 Y80.100 E1.37599
G1 X105.980 Y80.660 E1.39023
G1 X107.040 Y81.540 E1.41100
G1 X107.680 Y82.140 E1.42423
G1 X108.620 Y83.140 E1.44493
G1 X109.200 Y83.830 E1.45853
G1 X110.000 Y84.930 E1.47904
G1 X110.490 Y85.710 E1.49293
G1 X111.150 Y86.920 E1.51372
G1 X111.510 Y87.680 E1.52640
G1 X112.020 Y88.950 E1.54704
G1 X112.310 Y89.850 E1.56130
G1 X112.650 Y91.180 E1.58201
G1 X112.820 Y92.060 E1.59552
G1 X112.990 Y93.420 E1.61619
G1 X113.040 Y94.310 E1.62964
G1 X113.040 Y95.680 E1.65030
G1 X112.990 Y96.570 E1.66374
G1 X112.820 Y97.930 E1.68441
G1 X112.650 Y98.810 E1.69793
G1 X112.310 Y100.140 E1.71864
G1 X112.020 Y101.040 E1.73290
G1 X111.510 Y102.310 E1.75354
G1 X111.150 Y103.070 E1.76622
G1 X110.490 Y104.280 E1.78701
G1 X110.000 Y105.060 E1.80090
G1 X109.200 Y106.160 E1.82141
G1 X108.620 Y106.850 E1.83501
G1 X107.680 Y107.850 E1.85570
G1 X107.020 Y108.470 E1.86936
G1 X106.020 Y109.300 E1.88896
G1 X105.240 Y109.870 E1.90353
G1 X104.090 Y110.600 E1.92407
G1 X103.310 Y111.030 E1.93751
G1 X102.060 Y111.620 E1.95835
G1 X101.210 Y111.960 E1.97216
G1 X99.910 Y112.380 E1.99276
G1 X99.060 Y112.600 E2.00601
G1 X97.710 Y112.860 E2.02674
G1 X96.780 Y112.970 E2.04086
G1 X95.420 Y113.050 E2.06141
G1 X94.580 Y113.050 E2.07408
G1 X93.210 Y112.970 E2.09478
G1 X92.280 Y112.860 E2.10890
G1 X90.930 Y112.600 E2.12963
G1 X90.080 Y112.380 E2.14287
G1 X88.780 Y111.960 E2.16348
G1 X87.910 Y111.610 E2.17762
G1 X86.670 Y111.020 E2.19833
G1 X85.930 Y110.610 E2.21109
G1 X84.770 Y109.890 E2.23168
G1 X84.010 Y109.330 E2.24592
G1 X82.950 Y108.450 E2.26670
G1 X82.310 Y107.850 E2.27993
G1 X81.370 Y106.850 E2.30063
G1 X80.790 Y106.160 E2.31422
G1 X79.990 Y105.060 E2.33473
G1 X79.500 Y104.280 E2.34863
G1 X78.840 Y103.070 E2.36941
G1 X78.480 Y102.310 E2.38209
G1 X77.970 Y101.040 E2.40274
G1 X77.680 Y100.140 E2.41700
G1 X77.340 Y98.810 E2.43770
G1 X77.170 Y97.930 E2.45122
G1 X77.000 Y96.570 E2.47189
G1 X76.950 Y95.680 E2.48533
G1 X76.950 Y94.310 E2.50599
G1 X77.000 Y93.420 E2.51944
G1 X77.170 Y92.060 E2.54011
G1 X77.340 Y91.180 E2.55362
G1 X77.680 Y89.850 E2.57433
G1 X77.970 Y88.950 E2.58859
G1 X78.480 Y87.680 E2.60923
G1 X78.840 Y86.920 E2.62191
G1 X79.500 Y85.710 E2.64270
G1 X79.990 Y84.930 E2.65659
G1 X80.790 Y83.830 E2.67710
G1 X81.370 Y83.140 E2.69070
G1 X82.270 Y82.182 E2.71053
G1 X82.310 Y82.140 E2.71140
G1 X82.590 Y82.400 F12000.000
G1 X83.200 Y81.830 F900.000 E2.72399
G1 X84.260 Y80.950 E2.74477
G1 X84.970 Y80.430 E2.75804
G1 X86.130 Y79.700 E2.77871
G1 X86.830 Y79.320 E2.79072
G1 X88.070 Y78.730 E2.81143
G1 X88.900 Y78.400 E2.82490
G1 X90.200 Y77.980 E2.84551
G1 X91.000 Y77.770 E2.85798
G1 X92.350 Y77.510 E2.87871
G1 X93.240 Y77.400 E2.89224
G1 X94.610 Y77.320 E2.91294
G1 X95.400 Y77.320 E2.92485
G1 X96.760 Y77.400 E2.94540
G1 X97.640 Y77.510 E2.95877
G1 X98.990 Y77.770 E2.97951
G1 X99.790 Y77.980 E2.99198
G1 X101.090 Y78.400 E3.01258
G1 X101.900 Y78.720 E3.02572
G1 X103.150 Y79.310 E3.04656
G1 X103.900 Y79.720 E3.05946
G1 X105.010 Y80.430 E3.07933
G1 X105.730 Y80.950 E3.09272
G1 X106.790 Y81.830 E3.11350
G1 X107.400 Y82.400 E3.12609
G1 X108.340 Y83.400 E3.14679
G1 X108.880 Y84.060 E3.15965
G1 X109.680 Y85.160 E3.18016
G1 X110.150 Y85.900 E3.19338
G1 X110.810 Y87.110 E3.21417
G1 X111.150 Y87.830 E3.22618
G1 X111.660 Y89.100 E3.24682
G1 X111.940 Y89.940 E3.26017
G1 X112.280 Y91.270 E3.28088
G1 X112.440 Y92.110 E3.29377
G1 X112.610 Y93.470 E3.31444
G1 X112.660 Y94.310 E3.32714
G1 X112.660 Y95.680 E3.34780
G1 X112.610 Y96.520 E3.36049
G1 X112.440 Y97.880 E3.38116
G1 X112.280 Y98.720 E3.39406
G1 X111.940 Y100.050 E3.41476
G1 X111.660 Y100.890 E3.42811
G1 X111.150 Y102.160 E3.44875
G1 X110.810 Y102.880 E3.46076
G1 X110.150 Y104.090 E3.48155
G1 X109.680 Y104.830 E3.49477
G1 X108.880 Y105.930 E3.51528
G1 X108.340 Y106.590 E3.52814
G1 X107.400 Y107.590 E3.54884
G1 X106.780 Y108.170 E3.56165
G1 X105.780 Y109.000 E3.58125
G1 X105.040 Y109.550 E3.59515
G1 X103.890 Y110.280 E3.61569
G1 X103.150 Y110.680 E3.62838
G1 X101.900 Y111.270 E3.64923
G1 X101.090 Y111.590 E3.66236
G1 X99.790 Y112.010 E3.68297
G1 X98.990 Y112.220 E3.69544
G1 X97.640 Y112.480 E3.71617
G1 X96.760 Y112.590 E3.72955
G1 X95.400 Y112.670 E3.75010
G1 X94.610 Y112.670 E3.76201
G1 X93.240 Y112.590 E3.78271
G1 X92.350 Y112.480 E3.79623
G1 X91.000 Y112.220 E3.81697
G1 X90.200 Y112.010 E3.82944
G1 X88.900 Y111.590 E3.85004
G1 X88.070 Y111.260 E3.86351
G1 X86.830 Y110.670 E3.88422
G1 X86.130 Y110.290 E3.89624
G1 X85.320 Y109.780 E3.91067
G1 X84.980 Y109.560 E3.91678
G1 X84.260 Y109.040 E3.93018
G1 X83.200 Y108.160 E3.95095
G1 X82.590 Y107.590 E3.96354
G1 X81.650 Y106.590 E3.98424
G1 X81.110 Y105.930 E3.99710
G1 X80.310 Y104.830 E4.01762
G1 X79.840 Y104.090 E4.03084
G1 X79.180 Y102.880 E4.05162
G1 X78.840 Y102.160 E4.06363
G1 X78.330 Y100.890 E4.08427
G1 X78.050 Y100.050 E4.09763
G1 X77.710 Y98.720 E4.11833
G1 X77.550 Y97.880 E4.13123
G1 X77.380 Y96.520 E4.15190
G1 X77.330 Y95.680 E4.16459
G1 X77.330 Y94.310 E4.18525
G1 X77.380 Y93.470 E4.19794
G1 X77.550 Y92.110 E4.21861
G1 X77.710 Y91.270 E4.23151
G1 X78.050 Y89.940 E4.25221
G1 X78.330 Y89.100 E4.26557
G1 X78.840 Y87.830 E4.28621
G1 X79.180 Y87.110 E4.29821
G1 X79.840 Y85.900 E4.31900
G1 X80.310 Y85.160 E4.33222
G1 X81.110 Y84.060 E4.35274
G1 X81.650 Y83.400 E4.36560
G1 X82.550 Y82.442 E4.38542
G1 X82.590 Y82.400 E4.38629
G1 X82.870 Y82.670 F12000.000
G1 X83.440 Y82.130 F900.000 E4.39814
G1 X84.500 Y81.250 E4.41891
G1 X85.180 Y80.760 E4.43155
G1 X86.340 Y80.030 E4.45222
G1 X87.000 Y79.660 E4.46364
G1 X88.240 Y79.070 E4.48435
G1 X89.020 Y78.760 E4.49701
G1 X90.320 Y78.340 E4.51761
G1 X91.070 Y78.150 E4.52928
G1 X92.420 Y77.890 E4.55001
G1 X93.260 Y77.790 E4.56277
G1 X94.630 Y77.710 E4.58347
G1 X95.370 Y77.710 E4.59463
G1 X96.730 Y77.790 E4.61517
G1 X97.570 Y77.890 E4.62793
G1 X98.920 Y78.150 E4.64867
G1 X99.670 Y78.340 E4.66033
G1 X100.970 Y78.760 E4.68094
G1 X101.740 Y79.070 E4.69346
G1 X102.990 Y79.660 E4.71430
G1 X103.690 Y80.050 E4.72639
G1 X104.810 Y80.750 E4.74631
G1 X105.490 Y81.250 E4.75904
G1 X106.550 Y82.130 E4.77981
G1 X107.120 Y82.670 E4.79166
G1 X108.060 Y83.670 E4.81235
G1 X108.570 Y84.280 E4.82435
G1 X109.370 Y85.380 E4.84486
G1 X109.820 Y86.080 E4.85741
G1 X110.480 Y87.290 E4.87820
G1 X110.790 Y87.970 E4.88947
G1 X111.300 Y89.240 E4.91011
G1 X111.570 Y90.040 E4.92284
G1 X111.910 Y91.370 E4.94354
G1 X112.060 Y92.160 E4.95567
G1 X112.230 Y93.520 E4.97634
G1 X112.270 Y94.310 E4.98827
G1 X112.270 Y95.680 E5.00893
G1 X112.230 Y96.470 E5.02086
G1 X112.060 Y97.830 E5.04153
G1 X111.910 Y98.620 E5.05366
G1 X111.570 Y99.950 E5.07437
G1 X111.300 Y100.750 E5.08710
G1 X110.790 Y102.020 E5.10774
G1 X110.480 Y102.700 E5.11901
G1 X109.820 Y103.910 E5.13980
G1 X109.370 Y104.610 E5.15235
G1 X108.570 Y105.710 E5.17286
G1 X108.060 Y106.320 E5.18485
G1 X107.120 Y107.320 E5.20555
G1 X106.530 Y107.880 E5.21782
G1 X105.530 Y108.710 E5.23742
G1 X104.830 Y109.220 E5.25048
G1 X103.680 Y109.950 E5.27102
G1 X102.990 Y110.330 E5.28290
G1 X101.740 Y110.920 E5.30375
G1 X100.970 Y111.230 E5.31627
G1 X99.670 Y111.650 E5.33687
G1 X98.920 Y111.840 E5.34854
G1 X97.570 Y112.100 E5.36927
G1 X96.730 Y112.200 E5.38203
G1 X95.370 Y112.280 E5.40258
G1 X94.630 Y112.280 E5.41374
G1 X93.260 Y112.200 E5.43444
G1 X92.420 Y112.100 E5.44719
G1 X91.070 Y111.840 E5.46793
G1 X90.320 Y111.650 E5.47960
G1 X89.020 Y111.230 E5.50020
G1 X88.240 Y110.920 E5.51286
G1 X87.000 Y110.330 E5.53357
G1 X86.340 Y109.960 E5.54498
G1 X85.180 Y109.240 E5.56557
G1 X84.500 Y108.740 E5.57830
G1 X83.440 Y107.860 E5.59908
G1 X82.870 Y107.320 E5.61092
G1 X81.930 Y106.320 E5.63162
G1 X81.420 Y105.710 E5.64361
G1 X80.620 Y104.610 E5.66412
G1 X80.170 Y103.910 E5.67667
G1 X79.510 Y102.700 E5.69746
G1 X79.200 Y102.020 E5.70873
G1 X78.690 Y100.750 E5.72937
G1 X78.420 Y99.950 E5.74211
G1 X78.080 Y98.620 E5.76281
G1 X77.930 Y97.830 E5.77494
G1 X77.760 Y96.470 E5.79561
G1 X77.720 Y95.680 E5.80754
G1 X77.720 Y94.310 E5.82820
G1 X77.760 Y93.520 E5.84013
G1 X77.930 Y92.160 E5.86080
G1 X78.080 Y91.370 E5.87293
G1 X78.420 Y90.040 E5.89363
G1 X78.690 Y89.240 E5.90636
G1 X79.200 Y87.970 E5.92700
G1 X79.510 Y87.290 E5.93827
G1 X80.170 Y86.080 E5.95906
G1 X80.620 Y85.380 E5.97161
G1 X81.420 Y84.280 E5.99213
G1 X81.930 Y83.670 E6.00412
G1 X82.830 Y82.712 E6.02394
G1 X82.870 Y82.670 E6.02482
G1 F1800.000 E5.02482
G92 E0
G1 X88.519 Y88.099 F12000.000
G1 F1800.000 E1.00000
G1 X89.435 Y87.341 F900.000 E1.01793
G1 X90.439 Y86.704 E1.03586
G1 X91.515 Y86.197 E1.05379
G1 X92.646 Y85.830 E1.07172
G1 X92.988 Y85.765 E1.07698
G1 X93.813 Y85.607 E1.08965
G1 X95.000 Y85.533 E1.10759
G1 X96.187 Y85.607 E1.12552
G1 X97.354 Y85.830 E1.14345
G1 X98.485 Y86.197 E1.16138
G1 X99.561 Y86.704 E1.17931
G1 X100.565 Y87.341 E1.19724
G1 X101.481 Y88.099 E1.21517
G1 X102.295 Y88.965 E1.23310
G1 X102.500 Y89.247 E1.23836
G1 X102.994 Y89.927 E1.25103
G1 X103.566 Y90.969 E1.26896
G1 X104.004 Y92.074 E1.28689
G1 X104.300 Y93.226 E1.30482
G1 X104.449 Y94.406 E1.32276
G1 X104.449 Y95.594 E1.34069
G1 X104.300 Y96.774 E1.35862
G1 X104.004 Y97.926 E1.37655
G1 X103.566 Y99.031 E1.39448
G1 X102.994 Y100.073 E1.41241
G1 X102.295 Y101.035 E1.43034
G1 X102.056 Y101.289 E1.43560
G1 X101.481 Y101.901 E1.44827
G1 X100.565 Y102.659 E1.46620
G1 X99.561 Y103.296 E1.48413
G1 X98.485 Y103.803 E1.50206
G1 X97.354 Y104.170 E1.52000
G1 X96.187 Y104.393 E1.53793
G1 X95.000 Y104.467 E1.55586
G1 X93.813 Y104.393 E1.57379
G1 X92.646 Y104.170 E1.59172
G1 X91.515 Y103.803 E1.60965
G1 X90.439 Y103.296 E1.62758
G1 X90.145 Y103.109 E1.63284
G1 X89.435 Y102.659 E1.64551
G1 X88.519 Y101.901 E1.66344
G1 X87.705 Y101.035 E1.68137
G1 X87.006 Y100.073 E1.69930
G1 X86.434 Y99.031 E1.71723
G1 X85.996 Y97.926 E1.73517
G1 X85.700 Y96.774 E1.75310
G1 X85.551 Y95.594 E1.77103
G1 X85.551 Y94.406 E1.78896
G1 X85.595 Y94.059 E1.79422
G1 X85.700 Y93.226 E1.80689
G1 X85.996 Y92.074 E1.82482
G1 X86.434 Y90.969 E1.84275
G1 X86.995 Y89.943 E1.86039
G1 X87.705 Y88.965 E1.87861
G1 X88.480 Y88.141 E1.89568
G1 X88.519 Y88.099 E1.89655
G1 X88.783 Y88.380 F12000.000
G1 X89.662 Y87.653 F900.000 E1.91375
G1 X90.625 Y87.042 E1.93095
G1 X91.657 Y86.556 E1.94815
G1 X92.741 Y86.204 E1.96535
G1 X93.060 Y86.143 E1.97024
G1 X93.862 Y85.990 E1.98255
G1 X95.000 Y85.918 E1.99975
G1 X96.138 Y85.990 E2.01695
G1 X97.259 Y86.204 E2.03415
G1 X98.343 Y86.556 E2.05135
G1 X99.375 Y87.042 E2.06855
G1 X100.338 Y87.653 E2.08575
G1 X101.217 Y88.380 E2.10295
G1 X101.998 Y89.211 E2.12015
G1 X102.188 Y89.474 E2.12505
G1 X102.668 Y90.134 E2.13735
G1 X103.217 Y91.133 E2.15455
G1 X103.637 Y92.194 E2.17175
G1 X103.921 Y93.298 E2.18896
G1 X104.064 Y94.430 E2.20616
G1 X104.064 Y95.570 E2.22336
G1 X103.921 Y96.702 E2.24056
G1 X103.637 Y97.806 E2.25776
G1 X103.217 Y98.867 E2.27496
G1 X102.668 Y99.866 E2.29216
G1 X101.998 Y100.789 E2.30936
G1 X101.775 Y101.026 E2.31425
G1 X101.217 Y101.620 E2.32656
G1 X100.338 Y102.347 E2.34376
G1 X99.375 Y102.958 E2.36096
G1 X98.343 Y103.444 E2.37816
G1 X97.259 Y103.796 E2.39536
G1 X96.138 Y104.010 E2.41256
G1 X95.000 Y104.082 E2.42976
G1 X93.862 Y104.010 E2.44696
G1 X92.741 Y103.796 E2.46416
G1 X91.657 Y103.444 E2.48136
G1 X90.625 Y102.958 E2.49856
G1 X90.351 Y102.785 E2.50346
G1 X89.662 Y102.347 E2.51577
G1 X88.783 Y101.620 E2.53297
G1 X88.002 Y100.789 E2.55017
G1 X87.332 Y99.866 E2.56737
G1 X86.783 Y98.867 E2.58457
G1 X86.363 Y97.806 E2.60177
G1 X86.079 Y96.702 E2.61897
G1 X85.936 Y95.570 E2.63617
G1 X85.936 Y94.430 E2.65337
G1 X85.977 Y94.108 E2.65827
G1 X86.079 Y93.298 E2.67057
G1 X86.363 Y92.194 E2.68777
G1 X86.783 Y91.133 E2.70497
G1 X87.332 Y90.134 E2.72217
G1 X88.002 Y89.211 E2.73937
G1 X88.744 Y88.422 E2.75570
G1 X88.783 Y88.380 E2.75657
G1 X89.151 Y88.268 F12000.000
G1 F1800.000 E1.75657
G92 E0
G1 X103.893 Y100.644 F12000.000
G1 F1800.000 E1.00000
G1 X103.116 Y101.714 F900.000 E1.01995
G1 X102.210 Y102.678 E1.03990
G1 X101.191 Y103.521 E1.05984
G1 X100.074 Y104.230 E1.07979
G1 X99.230 Y104.627 E1.09386
G1 X98.877 Y104.793 E1.09974
G1 X97.619 Y105.202 E1.11969
G1 X96.320 Y105.450 E1.13964
G1 X95.000 Y105.533 E1.15959
G1 X93.680 Y105.450 E1.17953
G1 X92.381 Y105.202 E1.19948
G1 X91.123 Y104.793 E1.21943
G1 X89.926 Y104.230 E1.23938
G1 X88.809 Y103.521 E1.25933
G1 X87.790 Y102.678 E1.27928
G1 X86.884 Y101.714 E1.29922
G1 X86.107 Y100.644 E1.31917
G1 X85.470 Y99.485 E1.33912
G1 X84.983 Y98.255 E1.35907
G1 X84.654 Y96.974 E1.37902
G1 X84.488 Y95.661 E1.39897
G1 X84.488 Y94.339 E1.41891
G1 X84.654 Y93.026 E1.43886
G1 X84.983 Y91.745 E1.45881
G1 X85.470 Y90.515 E1.47876
G1 X86.107 Y89.356 E1.49871
G1 X86.884 Y88.286 E1.51866
G1 X87.790 Y87.322 E1.53860
G1 X88.809 Y86.479 E1.55855
G1 X89.926 Y85.770 E1.57850
G1 X91.123 Y85.207 E1.59845
G1 X92.381 Y84.798 E1.61840
G1 X93.680 Y84.550 E1.63835
G1 X95.000 Y84.467 E1.65829
G1 X96.320 Y84.550 E1.67824
G1 X97.619 Y84.798 E1.69819
G1 X98.877 Y85.207 E1.71814
G1 X100.074 Y85.770 E1.73809
G1 X101.191 Y86.479 E1.75804
G1 X102.210 Y87.322 E1.77798
G1 X103.115 Y88.286 E1.79793
G1 X103.893 Y89.356 E1.81788
G1 X104.530 Y90.515 E1.83783
G1 X105.017 Y91.745 E1.85778
G1 X105.346 Y93.026 E1.87773
G1 X105.512 Y94.339 E1.89767
G1 X105.512 Y95.661 E1.91762
G1 X105.346 Y96.974 E1.93757
G1 X105.017 Y98.255 E1.95752
G1 X104.530 Y99.485 E1.97747
G1 X103.921 Y100.593 E1.99654
G1 X103.893 Y100.644 E1.99742
G1 X104.219 Y100.850 F12000.000
G1 X103.413 Y101.960 F900.000 E2.01809
G1 X102.474 Y102.959 E2.03877
G1 X101.418 Y103.833 E2.05945
G1 X100.260 Y104.568 E2.08013
G1 X99.394 Y104.975 E2.09457
G1 X99.019 Y105.152 E2.10081
G1 X97.715 Y105.575 E2.12149
G1 X96.368 Y105.832 E2.14217
G1 X95.000 Y105.918 E2.16284
G1 X93.632 Y105.832 E2.18352
G1 X92.285 Y105.575 E2.20420
G1 X90.981 Y105.152 E2.22488
G1 X89.740 Y104.568 E2.24556
G1 X88.582 Y103.833 E2.26624
G1 X87.526 Y102.959 E2.28692
G1 X86.587 Y101.960 E2.30760
G1 X85.781 Y100.850 E2.32827
G1 X85.121 Y99.649 E2.34895
G1 X84.616 Y98.374 E2.36963
G1 X84.275 Y97.046 E2.39031
G1 X84.103 Y95.686 E2.41099
G1 X84.103 Y94.314 E2.43167
G1 X84.275 Y92.954 E2.45235
G1 X84.616 Y91.626 E2.47302
G1 X85.121 Y90.351 E2.49370
G1 X85.781 Y89.150 E2.51438
G1 X86.587 Y88.040 E2.53506
G1 X87.526 Y87.041 E2.55574
G1 X88.582 Y86.167 E2.57642
G1 X89.740 Y85.432 E2.59710
G1 X90.981 Y84.848 E2.61777
G1 X92.285 Y84.425 E2.63845
G1 X93.632 Y84.168 E2.65913
G1 X95.000 Y84.082 E2.67981
G1 X96.368 Y84.168 E2.70049
G1 X97.715 Y84.425 E2.72117
G1 X99.019 Y84.848 E2.74185
G1 X100.260 Y85.432 E2.76252
G1 X101.418 Y86.167 E2.78320
G1 X102.474 Y87.041 E2.80388
G1 X103.413 Y88.040 E2.82456
G1 X104.219 Y89.150 E2.84524
G1 X104.879 Y90.351 E2.86592
G1 X105.384 Y91.626 E2.88660
G1 X105.725 Y92.954 E2.90728
G1 X105.897 Y94.314 E2.92795
G1 X105.897 Y95.686 E2.94863
G1 X105.725 Y97.046 E2.96931
